img/flags/ky.svg

<svg width="20" height="14" viewBox="0 0 20 14" fill="none" xmlns="http://www.w3.org/2000/svg">
<rect width="20" height="14" rx="3" fill="#F93939"/>
<path fill-rule="evenodd" clip-rule="evenodd" d="M9.72009 8.85275C9.81247 8.86208 9.90581 8.86675 10.0001 8.86675C10.0953 8.86675 10.1877 8.86208 10.2801 8.85275L10.0001 8.16675L9.72009 8.85275ZM8.42866 8.34408C7.93057 7.95768 7.61914 7.39395 7.61914 6.76675C7.61914 6.02661 8.05343 5.37608 8.70866 5.00275L9.5239 7.00008L8.42866 8.34408ZM11.2915 5.00275C11.9468 5.37608 12.381 6.02661 12.381 6.76675C12.381 7.39488 12.0687 7.95861 11.5715 8.34408L10.4763 7.00008L11.2915 5.00275ZM11.1963 4.95048C10.8439 4.76941 10.4363 4.66675 10.0001 4.66675C9.5639 4.66675 9.15533 4.76941 8.8039 4.95048L10.0001 6.41581L11.1963 4.95048Z" fill="#FFDA2C"/>
<path fill-rule="evenodd" clip-rule="evenodd" d="M10.0001 11.2C12.3667 11.2 14.2858 9.31938 14.2858 7.00005C14.2858 4.68072 12.3667 2.80005 10.0001 2.80005C7.6334 2.80005 5.71436 4.68072 5.71436 7.00005C5.71436 9.31938 7.6334 11.2 10.0001 11.2ZM10.0001 10.2667C11.841 10.2667 13.3334 8.80418 13.3334 7.00005C13.3334 5.19592 11.841 3.73338 10.0001 3.73338C8.15912 3.73338 6.66674 5.19592 6.66674 7.00005C6.66674 8.80418 8.15912 10.2667 10.0001 10.2667Z" fill="#FFDA2C"/>
</svg>

<svg width="20" height="14" viewBox="0 0 20 14" fill="none" xmlns="http://www.w3.org/2000/svg"><rect width="20" height="14" rx="3" fill="#F93939"/><path fill-rule="evenodd" clip-rule="evenodd" d="M9.72 8.853a2.785 2.785 0 00.56 0L10 8.167l-.28.686zm-1.29-.509c-.498-.386-.81-.95-.81-1.577 0-.74.434-1.39 1.09-1.764L9.524 7 8.429 8.344zm2.862-3.341c.656.373 1.09 1.024 1.09 1.764 0 .628-.312 1.192-.81 1.577L10.476 7l.815-1.997zm-.095-.053A2.612 2.612 0 0010 4.667c-.436 0-.845.102-1.196.283L10 6.416l1.196-1.466z" fill="#FFDA2C"/><path fill-rule="evenodd" clip-rule="evenodd" d="M10 11.2c2.367 0 4.286-1.88 4.286-4.2 0-2.32-1.92-4.2-4.286-4.2-2.367 0-4.286 1.88-4.286 4.2 0 2.32 1.92 4.2 4.286 4.2zm0-.933c1.841 0 3.333-1.463 3.333-3.267 0-1.804-1.492-3.267-3.333-3.267-1.84 0-3.333 1.463-3.333 3.267 0 1.804 1.492 3.267 3.333 3.267z" fill="#FFDA2C"/></svg>
